actions/22x22-light/tab-new-background.svg

<svg xmlns="http://www.w3.org/2000/svg" viewBox="0 0 22 22">
 <defs id="defs3051">
   <style type="text/css" id="current-color-scheme">
     .ColorScheme-Text {
       color:#4d4d4d;
     }
     </style>
 </defs>
   <path
      style="fill:currentColor;fill-opacity:1;stroke:none"
      d="m5.6660156 5.5546875c-.8585156.9336711-1.7421934 2.4306317-2.6660156 3.5566406v.3554688.1777343 1.2441408 6.755859c0 .196978.158491.355469.3554688.355469h15.2890622c.196978 0 .355469-.158491.355469-.355469v-8.1777341-.3554688c-.923822-1.1260089-1.8075-2.6229695-2.666016-3.5566406h-1.779296-.419922-1.357422c-.578916.6295911-1.170757 1.5140651-1.777344 2.3691406-.606587-.8550755-1.1984281-1.7395495-1.7773438-2.3691406h-1.3574218-.4199219zm9.0605464 6.6699215c.033401.01.063997.0318.091797.0625l.386719.41211.386719-.41211c.0554-.0595.122722-.080393.201172-.058593.0784.0199.127354.073051.146484.154296l.136719.556641.535156-.15625c.0784-.0238.143799-.005399.199219.056641.0593.0575.077687.127684.054687.208984l-.152343.552734.541015.142579c.0765.0199.125508.07096.148438.152343.0191.0833.000759.153435-.056641.208985l-.396484.40039.396484.402344c.0574.0555.075741.125654.056641.208985-.0229.0813-.071871.13055-.148438.15039l-.541015.142578.152343.552735c.0229.0813.005003.151424-.054687.208984-.0555.0615-.120759.080441-.199219.056641l-.535156-.158204-.136719.560547c-.019.0793-.068099.130487-.146484.154297-.0229.004-.041288.00586-.054688.00586-.0592 0-.108234-.020853-.146484-.064454l-.386719-.412109-.386719.412109c-.0535.0595-.120851.078494-.201171.058594-.078401-.0217-.127365-.07288-.146485-.154297l-.138672-.560547-.533203.158204c-.0784.0238-.145712.007302-.201172-.054688-.0593-.0575-.075634-.127654-.052734-.208984l.15039-.554688-.537109-.142578c-.0765-.0198-.12747-.069001-.150391-.15039-.019-.0833.001204-.153425.058594-.208985l.394532-.402344-.394532-.40039c-.0574-.0555-.077693-.125685-.058594-.208985.0229-.0813.07392-.132523.150391-.152343l.537109-.142579-.15039-.552734c-.0229-.0813-.007306-.151464.052734-.208984.0555-.0615.122762-.080441.201172-.056641l.533203.158203.138672-.558594c.019-.0813.06811-.134466.146485-.154296.039199-.0119.07589-.013117.109374-.003907z"
      class="ColorScheme-Text" />
</svg>

<?xml version="1.0" encoding="UTF-8" standalone="no"?>
<svg
   xmlns:dc="http://purl.org/dc/elements/1.1/"
   xmlns:cc="http://creativecommons.org/ns#"
   xmlns:rdf="http://www.w3.org/1999/02/22-rdf-syntax-ns#"
   xmlns:svg="http://www.w3.org/2000/svg"
   xmlns="http://www.w3.org/2000/svg"
   xmlns:sodipodi="http://sodipodi.sourceforge.net/DTD/sodipodi-0.dtd"
   xmlns:inkscape="http://www.inkscape.org/namespaces/inkscape"
   viewBox="0 0 22 22"
   id="svg3197"
   version="1.1"
   inkscape:version="0.91 r13725"
   sodipodi:docname="tab-new-background.svg">
  <metadata
     id="metadata3205">
    <rdf:RDF>
      <cc:Work
         rdf:about="">
        <dc:format>image/svg+xml</dc:format>
        <dc:type
           rdf:resource="http://purl.org/dc/dcmitype/StillImage" />
      </cc:Work>
    </rdf:RDF>
  </metadata>
  <sodipodi:namedview
     pagecolor="#ffffff"
     bordercolor="#666666"
     borderopacity="1"
     objecttolerance="10"
     gridtolerance="10"
     guidetolerance="10"
     inkscape:pageopacity="0"
     inkscape:pageshadow="2"
     inkscape:window-width="640"
     inkscape:window-height="480"
     id="namedview3203"
     showgrid="false"
     inkscape:zoom="28.954545"
     inkscape:cx="4.8524333"
     inkscape:cy="11"
     inkscape:current-layer="svg3197" />
  <defs
     id="defs3051">
    <style
       type="text/css"
       id="current-color-scheme">
      .ColorScheme-Text {
        color:#4d4d4d
      }
      </style>
  </defs>
  <path
     style="color:#4d4d4d;fill:currentColor;fill-opacity:1;stroke:none"
     d="M 5.6660156 5.5546875 C 4.8075 6.4883586 3.9238222 7.9853192 3 9.1113281 L 3 9.4667969 L 3 9.6445312 L 3 10.888672 L 3 17.644531 C 3 17.841509 3.158491 18 3.3554688 18 L 18.644531 18 C 18.841509 18 19 17.841509 19 17.644531 L 19 9.4667969 L 19 9.1113281 C 18.076178 7.9853192 17.1925 6.4883586 16.333984 5.5546875 L 14.554688 5.5546875 L 14.134766 5.5546875 L 12.777344 5.5546875 C 12.198428 6.1842786 11.606587 7.0687526 11 7.9238281 C 10.393413 7.0687526 9.8015719 6.1842786 9.2226562 5.5546875 L 7.8652344 5.5546875 L 7.4453125 5.5546875 L 5.6660156 5.5546875 z M 14.726562 12.224609 C 14.759963 12.234609 14.790559 12.256409 14.818359 12.287109 L 15.205078 12.699219 L 15.591797 12.287109 C 15.647197 12.227609 15.714519 12.206716 15.792969 12.228516 C 15.871369 12.248416 15.920323 12.301567 15.939453 12.382812 L 16.076172 12.939453 L 16.611328 12.783203 C 16.689728 12.759403 16.755127 12.777804 16.810547 12.839844 C 16.869847 12.897344 16.888234 12.967528 16.865234 13.048828 L 16.712891 13.601562 L 17.253906 13.744141 C 17.330406 13.764041 17.379414 13.815101 17.402344 13.896484 C 17.421444 13.979784 17.403103 14.049919 17.345703 14.105469 L 16.949219 14.505859 L 17.345703 14.908203 C 17.403103 14.963703 17.421444 15.033857 17.402344 15.117188 C 17.379444 15.198488 17.330473 15.247738 17.253906 15.267578 L 16.712891 15.410156 L 16.865234 15.962891 C 16.888134 16.044191 16.870237 16.114315 16.810547 16.171875 C 16.755047 16.233375 16.689788 16.252316 16.611328 16.228516 L 16.076172 16.070312 L 15.939453 16.630859 C 15.920453 16.710159 15.871354 16.761346 15.792969 16.785156 C 15.770069 16.789156 15.751681 16.791016 15.738281 16.791016 C 15.679081 16.791016 15.630047 16.770163 15.591797 16.726562 L 15.205078 16.314453 L 14.818359 16.726562 C 14.764859 16.786062 14.697508 16.805056 14.617188 16.785156 C 14.538787 16.763456 14.489823 16.712276 14.470703 16.630859 L 14.332031 16.070312 L 13.798828 16.228516 C 13.720428 16.252316 13.653116 16.235818 13.597656 16.173828 C 13.538356 16.116328 13.522022 16.046174 13.544922 15.964844 L 13.695312 15.410156 L 13.158203 15.267578 C 13.081703 15.247778 13.030733 15.198577 13.007812 15.117188 C 12.988812 15.033888 13.009016 14.963763 13.066406 14.908203 L 13.460938 14.505859 L 13.066406 14.105469 C 13.009006 14.049969 12.988713 13.979784 13.007812 13.896484 C 13.030712 13.815184 13.081732 13.763961 13.158203 13.744141 L 13.695312 13.601562 L 13.544922 13.048828 C 13.522022 12.967528 13.537616 12.897364 13.597656 12.839844 C 13.653156 12.778344 13.720418 12.759403 13.798828 12.783203 L 14.332031 12.941406 L 14.470703 12.382812 C 14.489703 12.301512 14.538813 12.248346 14.617188 12.228516 C 14.656387 12.216616 14.693078 12.215399 14.726562 12.224609 z "
     id="path3201" />
</svg>
